lg/grpc.svg

<svg viewBox="0 0 512 208" version="1.1" xmlns="http://www.w3.org/2000/svg" preserveAspectRatio="xMidYMid" height="1em" width="1em">
  <defs>
    <linearGradient x1="100%" y1="0%" x2="0%" y2="100%" id="a">
      <stop stop-color="#72C9C9" offset="0%"/>
      <stop stop-color="#02B0AD" offset="100%"/>
    </linearGradient>
    <linearGradient x1="100%" y1="0%" x2="-8.8817842e-14%" y2="100%" id="b">
      <stop stop-color="#03B6B4" offset="0%"/>
      <stop stop-color="#74CBCA" offset="100%"/>
    </linearGradient>
  </defs>
  <g>
    <path d="M56.6781387,179.867942 C60.4793803,184.92537 65.4194032,189.015389 71.0973365,191.806104 C77.2380128,194.847794 84.0139241,196.385789 90.8660196,196.293197 C96.406263,196.43845 101.921362,195.497782 107.100221,193.524254 C111.242277,191.896908 114.94003,189.311709 117.890738,185.980312 C120.65978,182.734777 122.681285,178.920054 123.812056,174.806363 C125.04493,170.360425 125.655303,165.764995 125.625733,161.151377 L125.625733,145.108228 L125.244954,145.108228 C121.653872,150.800016 116.474089,155.315146 110.34547,158.095855 C104.501956,160.639862 98.193183,161.940653 91.8199581,161.915589 C85.5749863,161.962523 79.380444,160.794991 73.5810261,158.477961 C68.0898243,156.29776 63.0655912,153.088772 58.7783954,149.023489 C54.5243058,144.939178 51.1451455,140.032489 48.8462906,134.601638 C46.4000544,128.8683 45.1646754,122.691404 45.2176095,116.458232 C45.1648523,110.243163 46.3332844,104.078241 48.6565643,98.3135001 C50.8525591,92.859569 54.0599384,87.8700121 58.1097098,83.6077227 C62.1589238,79.3803727 67.0351562,76.0319994 72.4347078,73.7711445 C78.2123854,71.3690002 84.4182258,70.1669233 90.6749665,70.2379899 C93.5239282,70.2545078 96.3664973,70.5096955 99.1728468,71.0008753 C102.259034,71.5400174 105.271713,72.4376765 108.149686,73.6756179 C114.982536,76.6370605 120.888866,81.3887111 125.244954,87.4287836 L125.625733,87.4287836 L125.625733,72.5292997 L138.23258,72.5292997 L138.23258,161.151377 C138.189521,166.358548 137.58095,171.545636 136.417576,176.621367 C135.200559,182.109186 132.78778,187.260917 129.351267,191.70925 C125.441011,196.616841 120.437251,200.541973 114.73969,203.171106 C108.499508,206.225301 100.350123,207.752399 90.2915337,207.752399 C82.1207046,207.891693 74.0042585,206.398671 66.4178637,203.360832 C59.1597725,200.251381 52.6489539,195.628582 47.3205198,189.801373 L56.6781387,179.867942 Z M58.9694485,116.077453 C58.9379213,120.629248 59.8147714,125.141598 61.5486646,129.350333 C63.2017095,133.389139 65.5982003,137.08176 68.6136469,140.236376 C71.6115819,143.363008 75.1766376,145.891145 79.1189109,147.686118 C83.2256831,149.552664 87.6912162,150.497758 92.2020641,150.45506 C101.135469,150.487284 109.743763,147.105759 116.266787,141.001915 C119.470521,137.97891 121.97972,134.296367 123.621003,130.208745 C125.389953,125.715324 126.20329,120.90263 126.009166,116.077453 C126.041204,111.55109 125.264809,107.055367 123.716529,102.80192 C122.245259,98.7593651 119.971106,95.0563637 117.030999,91.9158767 C114.009077,88.7322342 110.37003,86.1978572 106.336009,84.4674614 C101.86929,82.5689628 97.054972,81.625351 92.2020641,81.6971923 C87.6912074,81.6558122 83.2258626,82.6013188 79.1189109,84.4674614 C75.1778908,86.2640278 71.6131966,88.7914581 68.6136469,91.9158767 C65.5991594,95.0715147 63.2023998,98.7638565 61.5473378,102.80192 C59.8142368,107.011778 58.9378587,111.524922 58.9694485,116.077453 L58.9694485,116.077453 Z M189.607275,161.915589 L175.856762,161.915589 L175.856762,26.6898366 L217.493059,26.6898366 C231.244455,26.6898366 242.099099,29.6821164 250.056989,35.6666761 C258.013994,41.6530049 261.993381,50.6935288 261.99515,62.7882479 C262.237177,71.567268 259.05177,80.095632 253.113837,86.5663914 C247.192078,92.9976261 238.629186,96.7218337 227.425163,97.7390143 L266.388044,161.915589 L249.579356,161.915589 L212.528333,99.0777123 L189.608601,99.0777123 L189.607275,161.915589 Z M189.607275,86.4721917 L214.055431,86.4721917 C219.308591,86.5827529 224.550457,85.9393598 229.620947,84.5616612 C233.329371,83.5701251 236.803172,81.8499124 239.839631,79.501409 C242.289123,77.530093 244.19519,74.9664463 245.377516,72.0529938 C246.539511,69.1035899 247.123277,65.9581889 247.096993,62.7882479 C247.110975,59.6822674 246.527204,56.6026076 245.377516,53.7172086 C244.181463,50.7842326 242.279104,48.1923023 239.839631,46.1719401 C236.832398,43.776802 233.348551,42.0511624 229.620947,41.1103612 C224.538843,39.8019397 219.302214,39.1917734 214.055431,39.296684 L189.607275,39.296684 L189.607275,86.4721917 Z M290.068007,26.6898366 L329.41432,26.6898366 C343.164832,26.6898366 354.019034,29.6825587 361.976924,35.6680029 C369.933929,41.6543316 373.913316,50.6948556 373.915085,62.7895747 C373.915085,74.8878318 369.935698,83.9597557 361.976924,90.0053462 C354.019034,96.0544748 343.164832,99.0785968 329.41432,99.0777123 L303.821173,99.0777123 L303.821173,161.915589 L290.068007,161.915589 L290.068007,26.6898366 Z M303.8225,86.4735184 L325.978019,86.4735184 C331.231169,86.5838783 336.473007,85.9404887 341.543535,84.562988 C345.251808,83.5710521 348.725534,81.8508769 351.762219,79.5027358 C354.211457,77.5311743 356.11747,74.9675995 357.300104,72.0543206 C358.462579,69.1050542 359.046362,65.9595592 359.019582,62.7895747 C359.034059,59.6835487 358.450271,56.603795 357.300104,53.7185353 C356.10381,50.7856944 354.201491,48.1938187 351.762219,46.1732668 C348.754744,43.7785092 345.270983,42.0529121 341.543535,41.1116879 C336.461398,39.8034451 331.224794,39.1932816 325.978019,39.2980107 L303.821173,39.2980107 L303.8225,86.4735184 Z M512,140.524282 C509.580308,144.109221 506.726454,147.381081 503.503447,150.265334 C500.013955,153.400131 496.128892,156.064366 491.947391,158.190055 C487.483369,160.469447 482.773893,162.232162 477.910299,163.444014 C472.693187,164.738859 467.335352,165.380177 461.960023,165.353217 C452.371604,165.44294 442.861026,163.625431 433.981366,160.006386 C417.046662,153.162971 403.632065,139.713879 396.832163,122.761656 C393.193258,113.719983 391.376203,104.048563 391.485332,94.302713 C391.376343,84.5568756 393.193392,74.8854827 396.832163,65.8437699 C403.631877,48.8920323 417.04666,35.4437122 433.981366,28.6016938 C442.860802,24.9817518 452.371473,23.1637741 461.960023,23.2535353 C470.60242,23.2998359 479.157657,24.9845014 487.172392,28.2182609 C495.72044,31.6392178 503.179393,37.316661 508.753425,44.6448425 L496.72239,53.6216821 C495.106203,51.2138925 493.178999,49.030174 490.990799,47.1272053 C488.463562,44.8894812 485.674785,42.9658488 482.685298,41.3982675 C479.491013,39.7159381 476.129805,38.3717217 472.65634,37.3874803 C469.179647,36.3815821 465.5793,35.8671194 461.960023,35.8590559 C453.937437,35.727472 445.983655,37.3574492 438.659513,40.6340553 C432.014753,43.6487562 426.065255,48.0050661 421.184793,53.4293023 C416.35441,58.8691368 412.624212,65.1936677 410.200569,72.0529938 C405.108491,86.4491244 405.108491,102.156302 410.200569,116.552432 C412.623785,123.411559 416.354039,129.735733 421.184793,135.174797 C426.063861,140.600911 432.013681,144.957909 438.659513,147.971371 C445.982966,151.250251 453.937161,152.880765 461.960023,152.747697 C465.515173,152.749067 469.063182,152.429347 472.560814,151.792432 C476.119223,151.138151 479.583413,150.047738 482.875025,148.545857 C486.344909,146.954331 489.562508,144.862311 492.425023,142.336633 C495.640942,139.463954 498.437225,136.153612 500.731851,132.502708 L512,140.524282 Z" fill="#244B5A"/>
    <polygon fill="url(#a)" transform="translate(35.481868, 35.481868) rotate(-135.213000) translate(-35.481868, -35.481868)" points="10.3922252 10.3922252 60.5715113 10.3922252 60.5715113 60.5715113 10.3922252 60.5715113"/>
    <polygon fill="url(#b)" transform="translate(132.446207, 35.062610) rotate(-135.213000) translate(-132.446207, -35.062610)" points="117.729815 20.346218 147.162598 20.346218 147.162598 49.779001 117.729815 49.779001"/>
    <polygon fill="#244B5A" points="36.9094556 14.0272653 15.5022273 35.5950313 37.0686665 57.0022595 55.3142322 56.9345949 36.1810659 37.9553324 130.658123 37.6050685 122.377831 45.9410843 131.500614 45.9079154 142.204892 35.1240324 131.421009 24.4210817 122.298226 24.4542506 130.640875 32.7305623 36.163818 33.0808263 55.1536946 13.9596007"/>
  </g>
</svg>

<svg viewBox="0 0 512 208" xmlns="http://www.w3.org/2000/svg" preserveAspectRatio="xMidYMid" height="1em" width="1em">
  <defs>
    <linearGradient x1="100%" y1="0%" x2="0%" y2="100%" id="a">
      <stop stop-color="#72C9C9" offset="0%"/>
      <stop stop-color="#02B0AD" offset="100%"/>
    </linearGradient>
    <linearGradient x1="100%" y1="0%" x2="0%" y2="100%" id="b">
      <stop stop-color="#03B6B4" offset="0%"/>
      <stop stop-color="#74CBCA" offset="100%"/>
    </linearGradient>
  </defs>
  <path d="M56.678 179.868a40.246 40.246 0 0 0 14.42 11.938 43.222 43.222 0 0 0 19.768 4.487 42.464 42.464 0 0 0 16.234-2.769 28.18 28.18 0 0 0 10.79-7.544 29.098 29.098 0 0 0 5.922-11.174 49.903 49.903 0 0 0 1.814-13.655v-16.043h-.381a34.445 34.445 0 0 1-14.9 12.988 45.958 45.958 0 0 1-18.525 3.82 48.184 48.184 0 0 1-18.239-3.438 46.394 46.394 0 0 1-14.803-9.455 43.5 43.5 0 0 1-9.932-14.421 45.253 45.253 0 0 1-3.628-18.144 47.463 47.463 0 0 1 3.439-18.144 46.64 46.64 0 0 1 9.453-14.706 42.642 42.642 0 0 1 14.325-9.837 46.147 46.147 0 0 1 18.24-3.533c2.849.017 5.691.272 8.498.763a40.246 40.246 0 0 1 8.977 2.675 41.352 41.352 0 0 1 17.095 13.753h.38v-14.9h12.608v88.622a71.906 71.906 0 0 1-1.815 15.47 38.212 38.212 0 0 1-7.067 15.088 40.24 40.24 0 0 1-14.611 11.462c-6.24 3.054-14.39 4.581-24.448 4.581a61.406 61.406 0 0 1-23.874-4.391A55.485 55.485 0 0 1 47.32 189.8l9.357-9.933Zm2.291-63.79a34.222 34.222 0 0 0 2.58 13.272 34.87 34.87 0 0 0 7.065 10.886 34.172 34.172 0 0 0 10.505 7.45 30.912 30.912 0 0 0 13.083 2.77 35.036 35.036 0 0 0 24.065-9.454 30.428 30.428 0 0 0 7.354-10.793 34.762 34.762 0 0 0 2.388-14.132 38.025 38.025 0 0 0-2.292-13.275 31.883 31.883 0 0 0-6.686-10.886 32.304 32.304 0 0 0-10.695-7.449 34.815 34.815 0 0 0-14.134-2.77 30.94 30.94 0 0 0-13.083 2.77 34.266 34.266 0 0 0-10.505 7.449 34.947 34.947 0 0 0-7.067 10.886 34.249 34.249 0 0 0-2.578 13.275Zm130.638 45.838h-13.75V26.69h41.636c13.751 0 24.606 2.992 32.564 8.977 7.957 5.986 11.936 15.027 11.938 27.121a33.791 33.791 0 0 1-8.881 23.778c-5.922 6.432-14.485 10.156-25.689 11.173l38.963 64.177h-16.809l-37.05-62.838h-22.92l-.002 62.838Zm0-75.444h24.448a54.954 54.954 0 0 0 15.566-1.91 28.907 28.907 0 0 0 10.219-5.06 18.482 18.482 0 0 0 5.538-7.449 24.716 24.716 0 0 0 1.719-9.265 24.212 24.212 0 0 0-1.72-9.07 19.22 19.22 0 0 0-5.537-7.546 27.013 27.013 0 0 0-10.22-5.062 57.796 57.796 0 0 0-15.565-1.813h-24.448v47.175ZM290.068 26.69h39.346c13.75 0 24.605 2.993 32.563 8.978 7.957 5.986 11.936 15.027 11.938 27.122 0 12.098-3.98 21.17-11.938 27.215-7.958 6.05-18.812 9.074-32.563 9.073h-25.593v62.838h-13.753V26.69Zm13.755 59.784h22.155a54.969 54.969 0 0 0 15.566-1.911 28.923 28.923 0 0 0 10.218-5.06 18.49 18.49 0 0 0 5.538-7.449 24.696 24.696 0 0 0 1.72-9.264 24.192 24.192 0 0 0-1.72-9.071 19.227 19.227 0 0 0-5.538-7.546 27.027 27.027 0 0 0-10.218-5.061 57.81 57.81 0 0 0-15.566-1.814h-22.157l.001 47.176ZM512 140.524a52.447 52.447 0 0 1-8.497 9.741 53.718 53.718 0 0 1-11.556 7.925 65.907 65.907 0 0 1-14.037 5.254 64.865 64.865 0 0 1-15.95 1.91 72.337 72.337 0 0 1-27.979-5.348 67.123 67.123 0 0 1-37.149-37.244 74.005 74.005 0 0 1-5.347-28.46 74.01 74.01 0 0 1 5.347-28.458 67.115 67.115 0 0 1 37.15-37.242 72.32 72.32 0 0 1 27.978-5.348 68.361 68.361 0 0 1 25.212 4.964 50.855 50.855 0 0 1 21.581 16.427l-12.03 8.977a32.925 32.925 0 0 0-5.732-6.495 41.835 41.835 0 0 0-8.306-5.729 51.866 51.866 0 0 0-10.029-4.01 38.797 38.797 0 0 0-10.696-1.529 54.855 54.855 0 0 0-23.3 4.775 52.918 52.918 0 0 0-17.475 12.795A56.294 56.294 0 0 0 410.2 72.053a66.723 66.723 0 0 0 0 44.5 56.27 56.27 0 0 0 10.984 18.622 52.853 52.853 0 0 0 17.475 12.796 54.796 54.796 0 0 0 23.3 4.777 59.045 59.045 0 0 0 10.6-.956 44.027 44.027 0 0 0 10.315-3.246 39.027 39.027 0 0 0 9.55-6.21 46.028 46.028 0 0 0 8.307-9.833L512 140.524Z" fill="#244B5A"/>
  <path fill="url(#a)" transform="rotate(-135.213 35.482 35.482)" d="M10.392 10.392h50.18v50.18h-50.18z"/>
  <path fill="url(#b)" transform="rotate(-135.213 132.446 35.063)" d="M117.73 20.346h29.433V49.78H117.73z"/>
  <path fill="#244B5A" d="M36.91 14.027 15.501 35.595 37.07 57.002l18.245-.067-19.133-18.98 94.477-.35-8.28 8.336 9.123-.033 10.704-10.784-10.784-10.703-9.123.033 8.343 8.277-94.477.35 18.99-19.121z"/>
</svg>
